X:1
T:Title
%%score { 1 | 2 }
L:1/8
Q:1/4=100
M:4/4
K:D
V:1 treble nm="Grand Piano"
V:2 bass 
V:1
 [FA]3 [GB] [FA][EG] [DF]>[EG] | [FA]6 z2 | B3 ^A B[Bd] [=Ac]>[GB] | [FA]6 z2 | %4
w: Frank~M.~Davis * * * * *||||
 [Fd]3 [Fd] [Fd][A,FA] [A,DF]>[DFA] | [DGB]6 z2 | [DFA]3 [DGB] [DFA][DEG] [A,DF]>[K:bass][G,CE] | %7
w: |||
 [F,D]6 z2 | [Fd]3 [Fd] [Fd]4 | [Ec]3 [Ec] [Fd]4 | [FA]3 [GB] [FA]F D>F | [CE]6 z2 | %12
w: |||||
 D3 E F[FA] [Fd]>[DAc] | [DGB]6 z2 | [DFA]3 [DGB] [DFA][A,EG] [A,DF]>[K:bass][G,CE] | [F,D]6 z2 |] %16
w: ||||
V:2
 [D,D]3 [D,D] [D,D][D,D] [D,A,]>[D,A,] | [D,D]6 z2 | %2
 [G,DG]3 [G,CG] [G,DG][G,D] [G,D]>[K:bass][G,D] | [D,D]6 z2 | [D,A,]3 [D,A,] [D,A,]D, D,>D, | %5
 G,6 z2 | A,3 A, A,,A,, A,,>A,, | D,6 z2 | [D,A,]3 [D,A,] [D,A,]4 | [A,,A,]3 [A,,A,] [D,A,]4 | %10
 [D,D]3 [D,D] [D,D][D,A,D] [D,F,]>[D,A,D] | [A,,A,]6 z2 | [D,F,]3 [D,G,D] [D,A,D][D,D] [D,A,]>F, | %13
 G,6 z2 | A,3 A, A,,A,, A,,>A,, | D,6 z2 |] %16

